pac12/logo_standard/arizona_wildcats.svg

<?xml version="1.0" encoding="UTF-8" standalone="no"?>
<!-- Created with Inkscape (http://www.inkscape.org/) -->

<svg
   xmlns:dc="http://purl.org/dc/elements/1.1/"
   xmlns:cc="http://creativecommons.org/ns#"
   xmlns:rdf="http://www.w3.org/1999/02/22-rdf-syntax-ns#"
   xmlns:svg="http://www.w3.org/2000/svg"
   xmlns="http://www.w3.org/2000/svg"
   version="1.0"
   width="280"
   height="200"
   id="svg2"
   xml:space="preserve"><metadata
     id="metadata32"><rdf:RDF><cc:Work
         rdf:about=""><dc:format>image/svg+xml</dc:format><dc:type
           rdf:resource="http://purl.org/dc/dcmitype/StillImage" /><dc:title></dc:title></cc:Work></rdf:RDF></metadata><defs
     id="defs5"><clipPath
       id="clipPath17"><path
         d="M 0,0 792,0 792,612 0,612 0,0 z"
         id="path19" /></clipPath><clipPath
       id="clipPath25"><path
         d="m 36,530.75 720,0 0,45.25 -720,0 0,-45.25 z"
         id="path27" /></clipPath><clipPath
       id="clipPath153"><path
         d="m 243,82.519 252,0 0,38.365 -252,0 0,-38.365 z"
         id="path155" /></clipPath><clipPath
       id="clipPath219"><path
         d="m 504,82.974 252,0 0,38.146 -252,0 0,-38.146 z"
         id="path221" /></clipPath><clipPath
       id="clipPath285"><path
         d="m 504,36.164 252,0 0,38.146 -252,0 0,-38.146 z"
         id="path287" /></clipPath><clipPath
       id="clipPath293"><path
         d="m 307.513,74.311 462.042,0 0,-51.3 -462.042,0 0,51.3 z"
         id="path295" /></clipPath><clipPath
       id="clipPath357"><path
         d="m 307.513,74.311 462.042,0 0,-51.3 -462.042,0 0,51.3 z"
         id="path359" /></clipPath><clipPath
       id="clipPath367"><path
         d="m 243,36 252,0 0,38.475 -252,0 L 243,36 z"
         id="path369" /></clipPath><clipPath
       id="clipPath433"><path
         d="m 76.026,382.787 95.914,0 0,96.661 -95.914,0 0,-96.661 z"
         id="path435" /></clipPath><clipPath
       id="clipPath465"><path
         d="m 243,367.531 105.976,0 0,109.469 -105.976,0 0,-109.469 z"
         id="path467" /></clipPath><clipPath
       id="clipPath527"><path
         d="m 427.791,401.569 318.201,0 0,75.431 -318.201,0 0,-75.431 z"
         id="path529" /></clipPath></defs><g
     transform="matrix(0.54162702,0,0,-0.54162702,-10.679895,418.82594)"
     id="g11"><path
       d="m 404.73108,773.23473 0,-119.90895 -12.1451,0.0587 48.40415,-129.30781 41.50186,-0.0539 0,-120.00685 -399.999993,0 0,119.84531 41.208143,-0.0539 48.83004,129.67496 -12.40454,-0.0294 0.0489,119.82083 244.55649,-0.0392 z"
       id="path437"
       style="fill:#ffffff;fill-opacity:1;fill-rule:nonzero;stroke:none" /><path
       d="m 282.49689,728.77614 77.25181,0 0,-30.89876 -32.0932,0 84.37928,-217.48091 24.95594,0 0,-31.9953 -104.58194,0 0,31.12884 -29.35677,0 0,-61.03877 165.06755,0 0,91.01234 -37.06677,-0.0636 -59.41844,158.41002 18.66066,0 0,90.95849 -107.79812,0 -107.80301,0 0,-90.95849 18.66555,0 -59.42334,-158.20932 -37.066768,-0.13706 0,-91.01234 165.077348,0 0,61.03877 -29.36656,0 0,-31.12884 -104.58195,0 0,31.9953 24.95595,0 84.37928,217.48091 -32.08831,0 0,30.89876 77.25181,0 z"
       id="path441"
       style="fill:#003366;fill-opacity:1;fill-rule:nonzero;stroke:none" /><path
       d="m 282.41857,728.49711 85.67652,-222.15586 c 0,0 10.97513,-27.03642 28.8036,-27.03642 l -62.38006,0 c 0,0 3.13295,-0.45526 6.25611,4.74838 1.78677,2.97142 0.27903,7.43098 0.27903,7.43098 l -19.29214,49.5937 -39.34306,0 -39.18152,0 -19.31662,-49.5937 c 0,0 -1.47347,-4.45956 0.3084,-7.43098 3.10848,-5.20364 6.23164,-4.74838 6.23164,-4.74838 l -62.37517,0 c 17.81868,0 28.8085,27.03642 28.8085,27.03642 l 85.52477,222.15586 m -0.0685,-163.87311 30.17917,0 -29.58684,77.93225 -30.63443,-77.93225 30.0421,0 z"
       id="path439"
       style="fill:#cc0033;fill-opacity:1;fill-rule:nonzero;stroke:none" /></g></svg>

<?xml version="1.0" encoding="UTF-8" standalone="no"?>
<!-- Created with Inkscape (http://www.inkscape.org/) -->
<svg xmlns:svg="http://www.w3.org/2000/svg" xmlns="http://www.w3.org/2000/svg" version="1.0" width="500" height="461.57236" id="svg2" xml:space="preserve"><defs id="defs5"><clipPath id="clipPath17"><path d="M 0,0 L 792,0 L 792,612 L 0,612 L 0,0 z" id="path19"/></clipPath><clipPath id="clipPath25"><path d="M 36,530.75 L 756,530.75 L 756,576 L 36,576 L 36,530.75 z" id="path27"/></clipPath><clipPath id="clipPath153"><path d="M 243,82.519 L 495,82.519 L 495,120.884 L 243,120.884 L 243,82.519 z" id="path155"/></clipPath><clipPath id="clipPath219"><path d="M 504,82.974 L 756,82.974 L 756,121.12 L 504,121.12 L 504,82.974 z" id="path221"/></clipPath><clipPath id="clipPath285"><path d="M 504,36.164 L 756,36.164 L 756,74.31 L 504,74.31 L 504,36.164 z" id="path287"/></clipPath><clipPath id="clipPath293"><path d="M 307.513,74.311 L 769.555,74.311 L 769.555,23.011 L 307.513,23.011 L 307.513,74.311 z" id="path295"/></clipPath><clipPath id="clipPath357"><path d="M 307.513,74.311 L 769.555,74.311 L 769.555,23.011 L 307.513,23.011 L 307.513,74.311 z" id="path359"/></clipPath><clipPath id="clipPath367"><path d="M 243,36 L 495,36 L 495,74.475 L 243,74.475 L 243,36 z" id="path369"/></clipPath><clipPath id="clipPath433"><path d="M 76.026,382.787 L 171.94,382.787 L 171.94,479.448 L 76.026,479.448 L 76.026,382.787 z" id="path435"/></clipPath><clipPath id="clipPath465"><path d="M 243,367.531 L 348.976,367.531 L 348.976,477 L 243,477 L 243,367.531 z" id="path467"/></clipPath><clipPath id="clipPath527"><path d="M 427.791,401.569 L 745.992,401.569 L 745.992,477 L 427.791,477 L 427.791,401.569 z" id="path529"/></clipPath></defs><g transform="matrix(1.25,0,0,-1.25,-103.115,966.59236)" id="g11"><path d="M 404.73108,773.23473 L 404.73108,653.32578 L 392.58598,653.38452 L 440.99013,524.07671 L 482.49199,524.02286 L 482.49199,404.01601 L 82.491997,404.01601 L 82.491997,523.86132 L 123.70014,523.80747 L 172.53018,653.48243 L 160.12564,653.45306 L 160.17459,773.27389 L 404.73108,773.23473 z" id="path437" style="fill:#ffffff;fill-opacity:1;fill-rule:nonzero;stroke:none"/><path d="M 282.49689,728.77614 L 359.7487,728.77614 L 359.7487,697.87738 L 327.6555,697.87738 L 412.03478,480.39647 L 436.99072,480.39647 L 436.99072,448.40117 L 332.40878,448.40117 L 332.40878,479.53001 L 303.05201,479.53001 L 303.05201,418.49124 L 468.11956,418.49124 L 468.11956,509.50358 L 431.05279,509.43994 L 371.63435,667.84996 L 390.29501,667.84996 L 390.29501,758.80845 L 282.49689,758.80845 L 174.69388,758.80845 L 174.69388,667.84996 L 193.35943,667.84996 L 133.93609,509.64064 L 96.869322,509.50358 L 96.869322,418.49124 L 261.94667,418.49124 L 261.94667,479.53001 L 232.58011,479.53001 L 232.58011,448.40117 L 127.99816,448.40117 L 127.99816,480.39647 L 152.95411,480.39647 L 237.33339,697.87738 L 205.24508,697.87738 L 205.24508,728.77614 L 282.49689,728.77614 z" id="path441" style="fill:#003366;fill-opacity:1;fill-rule:nonzero;stroke:none"/><path d="M 282.41857,728.49711 L 368.09509,506.34125 C 368.09509,506.34125 379.07022,479.30483 396.89869,479.30483 L 334.51863,479.30483 C 334.51863,479.30483 337.65158,478.84957 340.77474,484.05321 C 342.56151,487.02463 341.05377,491.48419 341.05377,491.48419 L 321.76163,541.07789 L 282.41857,541.07789 L 243.23705,541.07789 L 223.92043,491.48419 C 223.92043,491.48419 222.44696,487.02463 224.22883,484.05321 C 227.33731,478.84957 230.46047,479.30483 230.46047,479.30483 L 168.0853,479.30483 C 185.90398,479.30483 196.8938,506.34125 196.8938,506.34125 L 282.41857,728.49711 M 282.35003,564.624 L 312.5292,564.624 L 282.94236,642.55625 L 252.30793,564.624 L 282.35003,564.624 z" id="path439" style="fill:#cc0033;fill-opacity:1;fill-rule:nonzero;stroke:none"/></g></svg>
